icons/credit-card-filled.svg

<svg xmlns="http://www.w3.org/2000/svg" width="24" height="24" viewBox="0 0 24 24">
    <path fill="#3A3A47" fill-rule="evenodd" d="M21.999 10.999L22 18c0 1.338-.667 2.005-2 2H4c-1.333.005-2-.662-2-2v-7l19.999-.001zM14 14H9c-.667 0-1 .333-1 1 0 .618.287.949.862.993l.138.005h5c.667 0 1-.333 1-.999 0-.666-.333-.999-1-.999zm-8 0H5c-.667 0-1 .333-1 1 0 .665.333.998 1 .998h1c.667 0 1-.333 1-.999C7 14.333 6.667 14 6 14zM20 4c1.333 0 2 .667 2 2l-.001 1.999L2 8V6c0-1.333.667-2 2-2h16z"/>
</svg>

<svg width="24" height="24" viewBox="0 0 24 24" fill="none" xmlns="http://www.w3.org/2000/svg">
<path fill-rule="evenodd" clip-rule="evenodd" d="M22 8H2V6C2 4.667 2.667 4 4 4H20C21.333 4 22 4.667 22 6V8ZM22 11V18C22 19.338 21.333 20.005 20 20H4C2.667 20.005 2 19.338 2 18V11H22ZM9 14C8.333 14 8 14.333 8 15C8 15.665 8.333 15.998 9 15.998H14C14.667 15.998 15 15.665 15 14.999C15 14.333 14.667 14 14 14H9ZM5 14C4.333 14 4 14.333 4 15C4 15.665 4.333 15.998 5 15.998H6C6.667 15.998 7 15.665 7 14.999C7 14.333 6.667 14 6 14H5Z" fill="#3A3A47"/>
</svg>
